X: 16
T:Sandy MacIntyre's Trip to Boston
R:Reel
C:John Campbell
O:Cape Breton
M:4/4
L:1/8
Q:1/4=200
K:A
|:F|E2CE A,ECE|Acef ecce|f2af ecAc|dBcA BFFA|
E2CE A,ECE|Acef ecce|F2af ecBc|dfec A2A:|
|:f|eAc2 ecBc|ABce f2fa|eAc2 ecBc|
dfec B2Bf|eAc2 ecBc|ABce f2fg|agfe fgaf|ecBc A2A:|
